X: 258
P: Longways for as many as will
M: C|
L: 1/4
K: D
dd dd | d2 dd | ed cd | e3 g |\
fd dd | d d2 d | cA AB | =c3 c |

